X: 52
T: Zong ba nang song]             (tibet. Dialekt)
L: 1/8
M: 4/4
K: D
A2c2B2A B [I:setbarnb 1]| 
d6B2 | 
d f e/ f/ d/ e/c2B c | 
A B G AB2e e | 
d e B A G B A/ B/ G/ A/ | 
E4z4 | 
B2>d2e3e | 
A2G A B d A F | 
e2d Bd2d A | 
G6E2 | 
G> A B dA2F/ A/ F/ E/ | 
D E C D2<E2E | 
A2G A B d A F | 
e2d Bd2d A | 
G4G E A B | 
G zz6 |]

@@@ Tune index: 8720
